dist/img/svg/icon----1.svg

<svg width="48" height="48" viewBox="0 0 48 48" fill="none" xmlns="http://www.w3.org/2000/svg"><circle cx="24" cy="24" r="24" fill="#1F2120"/><path d="M32.922 19.615a.993.993 0 00-.217-.323l-3.999-3.999A.992.992 0 0028 15H16a.996.996 0 00-1 1v12c0 .266.105.52.293.707l3.999 3.999A1.004 1.004 0 0020 33h12a1 1 0 001-1V20a.988.988 0 00-.078-.385zM29.586 19h-9.172l-2-2h9.172l2 2zM17 18.414l2 2v9.172l-2-2v-9.172z" fill="#fff"/></svg>

<svg width="48" height="48" viewBox="0 0 48 48" fill="none" xmlns="http://www.w3.org/2000/svg">
<circle cx="24" cy="24" r="24" fill="#1F2120"/>
<path d="M32.922 19.615C32.871 19.493 32.797 19.383 32.705 19.292L28.706 15.293C28.52 15.105 28.266 15 28 15H16C15.87 15 15.74 15.026 15.618 15.077C15.373 15.178 15.178 15.373 15.077 15.618C15.026 15.74 15 15.87 15 16V28C15 28.266 15.105 28.52 15.293 28.707L19.292 32.706C19.384 32.798 19.493 32.872 19.615 32.923C19.736 32.973 19.866 33 20 33H32C32.553 33 33 32.553 33 32V20C33 19.866 32.973 19.736 32.922 19.615ZM29.586 19H20.414L18.414 17H27.586L29.586 19ZM17 18.414L19 20.414V29.586L17 27.586V18.414Z" fill="white"/>
</svg>
